X:1
T:Title
%%score { ( 1 4 ) | ( 2 3 ) }
L:1/8
M:4/4
K:G
V:1 treble nm="Grand Piano"
V:4 treble 
V:2 treble 
V:3 treble 
V:1
 z4 z2[Q:1/4=100] Bc | d>d d>e d B2 G |[M:7/8] [GB]>[GB][FB]>[CDFA] [B,DG]3 |[M:1/8] D | %4
[M:4/4] E>F G>A D2 [GB]2 | [FA]6 Bc |[M:7/8] d>dd>ed B2 |[M:1/8] G | %8
[M:4/4] [GB]>[GB] [FB]>[CDFA] [B,DG]3 [G,D] | [G,CE]>[G,DF] [G,EG]>[EA] [B,D]2 [CA]2 | [B,G]6 z2 | %11
 B2 d2 e2 d>B |[M:7/8] [EG]>[EG][EG]>[CE] [B,D]3 |[M:1/8] D |[M:4/4] G>G G>G B2 G2 | [DA]4 d4 | %16
 B2 d2 e2 d>B |[M:7/8] [EG]>[EG][G,EG]>[G,CE] [G,B,D]3 |[M:1/8] [G,D] | %19
[M:4/4] [G,CE]>[G,DF] [G,EG]>[EA] [B,D]2 [CA]2 |[M:3/4] [B,G]6 |] %21
V:2
 z4 z2 [G,G]2 | [G,B,G]>[G,B,G] [G,B,G]>[G,CG] [G,B,G] [G,DG]2[K:bass] [G,B,D] | %2
[M:7/8] [D,D]>[D,D][D,D]>D, G,,3 |[M:1/8] D, |[M:4/4] E,>F, G,>A, D,2 [D,D]2 | %5
 [D,D]6[K:treble] [G,DG]2 |[M:7/8] [G,B,G]>[G,B,G][G,B,G]>[G,CG][G,B,G] [G,DG]2 | %7
[M:1/8][K:bass] [G,B,D] |[M:4/4] [D,D]>[D,D] [D,D]>D, G,,3 B,, | C,>C, C,>[C,G,] [D,G,]2 [D,F,]2 | %10
 [G,,G,]6 z2 | [G,DG]2 [G,B,G]2 [G,CG]2 [G,B,G]>[G,DG] | %12
[M:7/8][K:bass] [C,C]>[C,C][C,G,]>[C,G,] [G,,G,]3 |[M:1/8] [G,B,] | %14
[M:4/4] [G,B,D]>[G,B,D] [G,B,D]>[G,B,D] [G,D]2 [E,B,E]2 | z4 A,2 z2 | %16
 [G,DG]2 [G,B,G]2 [G,CG]2 [G,B,G]>[G,DG] |[M:7/8][K:bass] [C,C]>[C,C]C,>C, G,,3 |[M:1/8] B,, | %19
[M:4/4] C,>C, C,>[C,G,] [D,G,]2 [D,F,]2 |[M:3/4] [G,,G,]6 |] %21
V:3
 z4 z2 z A, | x7[K:bass] x |[M:7/8] x7 |[M:1/8] x |[M:4/4] x8 | x6[K:treble] x2 |[M:7/8] x7 | %7
[M:1/8][K:bass] x |[M:4/4] x8 | x8 | x8 | x8 |[M:7/8][K:bass] x7 |[M:1/8] x |[M:4/4] x8 | D,8 | %16
 x8 |[M:7/8][K:bass] x7 |[M:1/8] x |[M:4/4] x8 |[M:3/4] x6 |] %21
V:4
 x8 | x8 |[M:7/8] x7 |[M:1/8] x |[M:4/4] x8 | x8 |[M:7/8] x7 |[M:1/8] x |[M:4/4] x8 | x8 | x8 | %11
 x8 |[M:7/8] x7 |[M:1/8] x |[M:4/4] x8 | F6- [DF]2 | x8 |[M:7/8] x7 |[M:1/8] x |[M:4/4] x8 | %20
[M:3/4] x6 |] %21

